www/assets/icons/directions_bus.svg

<svg xmlns="http://www.w3.org/2000/svg" width="24" height="24" viewBox="0 0 24 24" fill='currentColor'><path d="M4 16.5c0 .88.39 1.67 1 2.22v1.78c0 .55.45 1 1 1h1c.55 0 1-.45 1-1v-1h8v1c0 .55.45 1 1 1h1c.55 0 1-.45 1-1v-1.78c.61-.55 1-1.34 1-2.22v-10c0-3.5-3.58-4-8-4s-8 .5-8 4zm3.5 1c-.83 0-1.5-.67-1.5-1.5s.67-1.5 1.5-1.5S9 15.17 9 16s-.67 1.5-1.5 1.5m9 0c-.83 0-1.5-.67-1.5-1.5s.67-1.5 1.5-1.5 1.5.67 1.5 1.5-.67 1.5-1.5 1.5m1.5-6H6v-5h12z"/></svg>

<svg width="24" height="24" viewBox="0 0 24 24" xmlns="http://www.w3.org/2000/svg" fill='currentColor'><path d="M4 16.5C4 17.38 4.39 18.17 5 18.72V20.5C5 21.05 5.45 21.5 6 21.5H7C7.55 21.5 8 21.05 8 20.5V19.5H16V20.5C16 21.05 16.45 21.5 17 21.5H18C18.55 21.5 19 21.05 19 20.5V18.72C19.61 18.17 20 17.38 20 16.5V6.5C20 3 16.42 2.5 12 2.5C7.58 2.5 4 3 4 6.5V16.5ZM7.5 17.5C6.67 17.5 6 16.83 6 16C6 15.17 6.67 14.5 7.5 14.5C8.33 14.5 9 15.17 9 16C9 16.83 8.33 17.5 7.5 17.5ZM16.5 17.5C15.67 17.5 15 16.83 15 16C15 15.17 15.67 14.5 16.5 14.5C17.33 14.5 18 15.17 18 16C18 16.83 17.33 17.5 16.5 17.5ZM18 11.5H6V6.5H18V11.5Z"/></svg>
